X:1
T:Silver Spear
R:reel
C:Traditional
M:4/4
K:D
FA (3AAA BAFA | dfed Bcde | FA (3AAA BAFA | dfed (3(BcB)A2 |
FAAd BAFA | dfed Bcde | (3ggg ge (3(fgf) fe | dfed (3(BcB)A2 :|
|: fa (3aaa bfaf | gfed Bcde | fa (3aaa bfaf | gfed (3(BcB)A2 |
fa (3aaa bfaf | gfed Bcde | (3ggg ge (3(fgf) fe | dfed (3(BcB)A2 :|

%%newpage
%%scale .64
%%staffsep 25	

